svg/fluentui-system-icons/ic_fluent_arrow_shuffle_off_16_filled.svg

<svg width="16" height="16" viewBox="0 0 16 16" fill="none" xmlns="http://www.w3.org/2000/svg">
<path d="M12.0001 12.7072L14.1464 14.8536C14.3417 15.0488 14.6583 15.0488 14.8536 14.8536C15.0488 14.6583 15.0488 14.3417 14.8536 14.1464L1.85355 1.14645C1.65829 0.951184 1.34171 0.951184 1.14645 1.14645C0.951184 1.34171 0.951184 1.65829 1.14645 1.85355L4.21697 4.92408C3.77117 4.81308 3.28491 4.75 2.75 4.75C2.33579 4.75 2 5.08579 2 5.5C2 5.91421 2.33579 6.25 2.75 6.25C3.99278 6.25 4.87169 6.68232 5.68192 7.33222C5.8346 7.1871 5.99269 7.03159 6.15892 6.86602L6.86606 7.57317C5.65013 8.78608 4.60573 9.75 2.75 9.75C2.33579 9.75 2 10.0858 2 10.5C2 10.9142 2.33579 11.25 2.75 11.25C5.26993 11.25 6.71018 9.85019 7.92678 8.63389L8.63393 9.34104C8.50913 9.466 8.37921 9.59591 8.24334 9.72845C8.79999 10.1911 9.42961 10.6097 10.1831 10.8902L11.0428 11.7499C10.9496 12.0137 11.0086 12.3193 11.2197 12.5303C11.4307 12.7414 11.7363 12.8004 12.0001 12.7072ZM11.0085 8.88715L13.466 11.3447L13.7803 11.0303C14.0732 10.7374 14.0732 10.2626 13.7803 9.96967L12.2803 8.46967C11.9874 8.17678 11.5126 8.17678 11.2197 8.46967C11.102 8.58733 11.0316 8.73435 11.0085 8.88715ZM8.32543 6.20409L9.3937 7.27236C9.97331 6.8198 10.5923 6.48071 11.3569 6.3324L11.2197 6.46967C10.9268 6.76256 10.9268 7.23744 11.2197 7.53033C11.5126 7.82322 11.9874 7.82322 12.2803 7.53033L13.7803 6.03033C14.0732 5.73744 14.0732 5.26256 13.7803 4.96967L12.2803 3.46967C11.9874 3.17678 11.5126 3.17678 11.2197 3.46967C10.9268 3.76256 10.9268 4.23744 11.2197 4.53033L11.4846 4.79523C10.1571 4.95608 9.15886 5.52706 8.32543 6.20409Z" fill="#212121"/>
</svg>

<svg xmlns="http://www.w3.org/2000/svg" width="16" height="16"><path d="m12 12.707 2.146 2.147a.5.5 0 0 0 .708-.708l-13-13a.5.5 0 1 0-.708.708l3.071 3.07A6.04 6.04 0 0 0 2.75 4.75a.75.75 0 0 0 0 1.5c1.243 0 2.122.432 2.932 1.082.153-.145.31-.3.477-.466l.707.707C5.65 8.786 4.606 9.75 2.75 9.75a.75.75 0 0 0 0 1.5c2.52 0 3.96-1.4 5.177-2.616l.707.707a41.78 41.78 0 0 1-.39.387c.556.463 1.186.882 1.94 1.162l.859.86a.75.75 0 0 0 .957.957Zm-.992-3.82 2.458 2.458.314-.315a.75.75 0 0 0 0-1.06l-1.5-1.5a.75.75 0 0 0-1.271.417ZM8.325 6.204l1.069 1.068c.58-.452 1.198-.791 1.963-.94l-.137.138a.75.75 0 0 0 1.06 1.06l1.5-1.5a.75.75 0 0 0 0-1.06l-1.5-1.5a.75.75 0 1 0-1.06 1.06l.265.265c-1.328.161-2.326.732-3.16 1.41Z"/></svg>
